X: 21
T:Lamb Skinnet
M:6/8
L:1/8
Q:100
R:JIg
K:A
"A"Ace ecA|"D"d2f f2a|"A"Ace ecA|"E"G2B B2e|
"A"Ace ecA|"D"d2f f2a|"E"gfe "B7"fed|1 "E"efe dcB:|2 "E"e2z "E7"efg||
"A"aec aec|"D"d2f f2a|"A"ecA ecA|"E"G2B B2e|
"A"aec aec|"D"d2f f2a|"E"gfe "B7"fed|"E"e2z "E7"efg|
"A"aec aec|"D"d2f f2a|"A"ecA ecA|"E"G2B B2E|
"A"Ace ecA|"D"d2f f2a|"A"ecA "E7"dBG|1 "A"A3-AzE:|2 "A"A3-A2:|
